magnet-on.svg

<svg fill="currentColor" viewBox="0 0 24 24"><path d="M3 7v6a9 9 0 0 0 9 9 9 9 0 0 0 9-9V7h-4v6a5 5 0 0 1-5 5 5 5 0 0 1-5-5V7m10-2h4V2h-4M3 5h4V2H3m10-.5L9 9h2v5.5L15 7h-2z"/></svg>

<svg  viewBox="0 0 24 24" fill="currentColor"><path  d="M3,7V13A9,9 0 0,0 12,22A9,9 0 0,0 21,13V7H17V13A5,5 0 0,1 12,18A5,5 0 0,1 7,13V7M17,5H21V2H17M3,5H7V2H3M13,1.5L9,9H11V14.5L15,7H13V1.5Z"/></svg>
